assets/logos/icons/screenshare.svg

<svg height="24" viewBox="0 0 24 24" width="24" xmlns="http://www.w3.org/2000/svg"><path d="m7 8v-3c0-1.1045695.8954305-2 2-2h10c1.1045695 0 2 .8954305 2 2v8h-4v1h6v2h-6v2h-14v-8c0-1.1045695.8954305-2 2-2zm2 0h6c1.1045695 0 2 .8954305 2 2v1h2v-6h-10zm-4 8h10v-6h-10zm-4 3h18v2h-18z" fill="#492f5c" fill-rule="evenodd"/></svg>

<svg xmlns="http://www.w3.org/2000/svg" width="24" height="24" viewBox="0 0 24 24">
  <path fill="#492F5C" fill-rule="evenodd" d="M7,8 L7,5 C7,3.8954305 7.8954305,3 9,3 L19,3 C20.1045695,3 21,3.8954305 21,5 L21,13 L17,13 L17,14 L23,14 L23,16 L17,16 L17,18 L3,18 L3,10 C3,8.8954305 3.8954305,8 5,8 L7,8 Z M9,8 L15,8 C16.1045695,8 17,8.8954305 17,10 L17,11 L19,11 L19,5 L9,5 L9,8 Z M5,16 L15,16 L15,10 L5,10 L5,16 Z M1,19 L19,19 L19,21 L1,21 L1,19 Z"/>
</svg>
